SVG_Azure_All/Database Server SQL.svg

<?xml version="1.0" encoding="UTF-8" standalone="no"?>
<!-- Generated by Microsoft Visio, SVG Export Database Server SQL.svg Page-1 -->

<svg
   xmlns:dc="http://purl.org/dc/elements/1.1/"
   xmlns:cc="http://creativecommons.org/ns#"
   xmlns:rdf="http://www.w3.org/1999/02/22-rdf-syntax-ns#"
   xmlns:svg="http://www.w3.org/2000/svg"
   xmlns="http://www.w3.org/2000/svg"
   xmlns:sodipodi="http://sodipodi.sourceforge.net/DTD/sodipodi-0.dtd"
   xmlns:inkscape="http://www.inkscape.org/namespaces/inkscape"
   width="0.5904966in"
   height="0.78743482in"
   viewBox="0 0 42.515816 56.695361"
   xml:space="preserve"
   class="st9"
   version="1.1"
   id="svg143"
   sodipodi:docname="Database Server SQL.svg"
   style="font-size:12px;overflow:visible;color-interpolation-filters:sRGB;fill:none;fill-rule:evenodd;stroke-linecap:square;stroke-miterlimit:3"
   inkscape:version="0.92.5 (2060ec1f9f, 2020-04-08)"><metadata
   id="metadata147"><rdf:RDF><cc:Work
       rdf:about=""><dc:format>image/svg+xml</dc:format><dc:type
         rdf:resource="http://purl.org/dc/dcmitype/StillImage" /></cc:Work></rdf:RDF></metadata><sodipodi:namedview
   pagecolor="#ffffff"
   bordercolor="#666666"
   borderopacity="1"
   objecttolerance="10"
   gridtolerance="10"
   guidetolerance="10"
   inkscape:pageopacity="0"
   inkscape:pageshadow="2"
   inkscape:window-width="640"
   inkscape:window-height="480"
   id="namedview145"
   showgrid="false"
   inkscape:zoom="1.397344"
   inkscape:cx="27.040359"
   inkscape:cy="39.093001"
   inkscape:window-x="0"
   inkscape:window-y="0"
   inkscape:window-maximized="0"
   inkscape:current-layer="svg143" />
	<style
   type="text/css"
   id="style2">
	<![CDATA[
		.st1 {fill:url(#grad0-11);stroke:none;stroke-linecap:butt;stroke-width:35.9597}
		.st2 {fill:#003067;stroke:none;stroke-linecap:butt;stroke-width:35.9597}
		.st3 {fill:#50e6ff;stroke:none;stroke-linecap:butt;stroke-width:35.9597}
		.st4 {fill:url(#grad0-30);stroke:none;stroke-linecap:butt;stroke-width:34}
		.st5 {fill:#e8e8e8;stroke:none;stroke-linecap:butt;stroke-width:34}
		.st6 {fill:#50e6ff;stroke:none;stroke-linecap:butt;stroke-width:34}
		.st7 {fill:#198ab3;stroke:none;stroke-linecap:butt;stroke-width:34}
		.st8 {fill:url(#grad3-44);stroke:none;stroke-linecap:butt;stroke-width:34}
		.st9 {fill:none;fill-rule:evenodd;font-size:12px;overflow:visible;stroke-linecap:square;stroke-miterlimit:3}
	]]>
	</style>

	<defs
   id="Patterns_And_Gradients">
		<linearGradient
   id="grad0-11"
   x1="-0.00027585006"
   y1="54.370481"
   x2="40.926398"
   y2="54.370481"
   gradientTransform="scale(0.75232616,1.3292107)"
   gradientUnits="userSpaceOnUse">
			<stop
   offset="0"
   stop-color="#949494"
   stop-opacity="1"
   id="stop4" />
			<stop
   offset="0.53"
   stop-color="#a2a2a2"
   stop-opacity="1"
   id="stop6" />
			<stop
   offset="1"
   stop-color="#b3b3b3"
   stop-opacity="1"
   id="stop8" />
		</linearGradient>
		<linearGradient
   id="grad0-30"
   x1="0"
   y1="90.87426"
   x2="25.269848"
   y2="90.87426"
   gradientTransform="scale(0.91690304,1.0906279)"
   gradientUnits="userSpaceOnUse">
			<stop
   offset="0"
   stop-color="#005ba1"
   stop-opacity="1"
   id="stop11" />
			<stop
   offset="0.07"
   stop-color="#0060a9"
   stop-opacity="1"
   id="stop13" />
			<stop
   offset="0.36"
   stop-color="#0071c8"
   stop-opacity="1"
   id="stop15" />
			<stop
   offset="0.52"
   stop-color="#0078d4"
   stop-opacity="1"
   id="stop17" />
			<stop
   offset="0.64"
   stop-color="#0074cd"
   stop-opacity="1"
   id="stop19" />
			<stop
   offset="0.82"
   stop-color="#006abb"
   stop-opacity="1"
   id="stop21" />
			<stop
   offset="1"
   stop-color="#005ba1"
   stop-opacity="1"
   id="stop23" />
		</linearGradient>
		<radialGradient
   id="grad3-44"
   cx="6.7529074"
   cy="167.40392"
   r="9.8602726"
   gradientTransform="scale(1.3748917,0.72733003)"
   fx="6.7529074"
   fy="167.40392"
   gradientUnits="userSpaceOnUse">
			<stop
   offset="0"
   stop-color="#f2f2f2"
   stop-opacity="1"
   id="stop26" />
			<stop
   offset="0.58"
   stop-color="#eeeeee"
   stop-opacity="1"
   id="stop28" />
			<stop
   offset="1"
   stop-color="#e6e6e6"
   stop-opacity="1"
   id="stop30" />
		</radialGradient>
	</defs>
	<g
   id="g141"
   transform="translate(-35.959692,-35.958926)">
		<title
   id="title34">Page-1</title>
		<g
   id="group5726-1"
   transform="translate(35.9599,-34.0157)">
			<title
   id="title36">Database Server SQL</title>
			<g
   id="group5727-2">
				<title
   id="title38">Page-1</title>
				<g
   id="group5728-3">
					<title
   id="title40">Sheet.5728</title>
					<g
   id="group5729-4"
   transform="translate(0,-2.2952)">
						<title
   id="title42">Sheet.5729</title>
						<g
   id="group5730-5">
							<title
   id="title44">Icon-databases-136.149</title>
							<g
   id="group5731-6">
								<title
   id="title46">path4-5</title>
								<g
   id="group5732-7">
									<title
   id="title48">Sheet.5732</title>
									<g
   id="shape5733-8">
										<title
   id="title50">Sheet.5733</title>
										<path
   d="m 30.79,124.82 a 1.88724,1.81867 90 0 1 -1.78,1.85 H 1.78 A 1.85469,1.78732 90 0 1 0,124.82 v -50.7 a 1.82216,1.75596 90 0 1 1.78,-1.85 h 27.23 a 1.85469,1.78732 90 0 1 1.78,1.85 z"
   class="st1"
   id="path52"
   inkscape:connector-curvature="0"
   style="fill:url(#grad0-11);stroke:none;stroke-width:35.95970154;stroke-linecap:butt" />
									</g>
								</g>
							</g>
							<g
   id="group5734-12"
   transform="translate(4.51533,-31.8551)">
								<title
   id="title57">path6-7</title>
								<g
   id="group5735-13">
									<title
   id="title59">Sheet.5735</title>
									<g
   id="shape5736-14">
										<title
   id="title61">Sheet.5736</title>
										<path
   d="m 0,123.19 a 3.48163,3.35514 90 0 1 3.33,-3.45 h 15.36 a 3.48163,3.35514 90 0 1 3.44,3.45 3.48163,3.35514 90 0 1 -3.44,3.48 H 3.33 A 3.48163,3.35514 90 0 1 0,123.19 Z m 0,-10.28 a 3.48163,3.35514 90 0 1 3.33,-3.48 h 15.36 a 3.48163,3.35514 90 0 1 3.44,3.48 3.48163,3.35514 90 0 1 -3.44,3.45 H 3.33 A 3.48163,3.35514 90 0 1 0,112.91 Z"
   class="st2"
   id="path63"
   inkscape:connector-curvature="0"
   style="fill:#003067;stroke:none;stroke-width:35.95970154;stroke-linecap:butt" />
									</g>
								</g>
							</g>
							<g
   id="group5737-16"
   transform="translate(5.76958,-43.2737)">
								<title
   id="title68">circle8-5</title>
								<g
   id="group5738-17">
									<title
   id="title70">Sheet.5738</title>
									<g
   id="shape5739-18">
										<title
   id="title72">Sheet.5739</title>
										<ellipse
   cx="2.2576599"
   cy="124.326"
   rx="2.2576599"
   ry="2.3427801"
   class="st3"
   id="ellipse74"
   style="fill:#50e6ff;stroke:none;stroke-width:35.95970154;stroke-linecap:butt" />
									</g>
								</g>
							</g>
							<g
   id="group5740-20"
   transform="translate(5.76958,-32.9916)">
								<title
   id="title79">circle10-2</title>
								<g
   id="group5741-21">
									<title
   id="title81">Sheet.5741</title>
									<g
   id="shape5742-22">
										<title
   id="title83">Sheet.5742</title>
										<ellipse
   cx="2.2576599"
   cy="124.326"
   rx="2.2576599"
   ry="2.3427801"
   class="st3"
   id="ellipse85"
   style="fill:#50e6ff;stroke:none;stroke-width:35.95970154;stroke-linecap:butt" />
									</g>
								</g>
							</g>
						</g>
					</g>
					<g
   id="group5743-24"
   transform="translate(19.3456)">
						<title
   id="title92">SQL Database</title>
						<g
   id="group5744-25">
							<title
   id="title94">Sheet.5744</title>
							<g
   id="group5745-26">
								<title
   id="title96">Sheet.5745</title>
								<g
   id="shape5746-27">
									<title
   id="title98">Sheet.5746</title>
									<path
   d="M 11.59,103.47 C 5.18,103.47 0,101.59 0,99.11 v 23.2 c 0,2.39 5.1,4.32 11.43,4.36 h 0.16 c 6.4,0 11.58,-1.88 11.58,-4.36 v -23.2 c 0,2.42 -5.18,4.36 -11.58,4.36 z"
   class="st4"
   id="path100"
   inkscape:connector-curvature="0"
   style="fill:url(#grad0-30);stroke:none;stroke-width:34;stroke-linecap:butt" />
								</g>
							</g>
							<g
   id="group5747-31"
   transform="translate(0,-23.2041)">
								<title
   id="title104">Sheet.5747</title>
								<g
   id="shape5748-32">
									<title
   id="title106">Sheet.5748</title>
									<path
   d="m 23.17,122.31 c 0,2.43 -5.18,4.36 -11.58,4.36 -6.41,0 -11.59,-1.88 -11.59,-4.36 0,-2.47 5.18,-4.35 11.59,-4.35 6.4,0 11.58,1.88 11.58,4.35 z"
   class="st5"
   id="path108"
   inkscape:connector-curvature="0"
   style="fill:#e8e8e8;stroke:none;stroke-width:34;stroke-linecap:butt" />
								</g>
							</g>
							<g
   id="group5749-34"
   transform="translate(2.69393,-25.1377)">
								<title
   id="title112">Sheet.5749</title>
								<g
   id="shape5750-35">
									<title
   id="title114">Sheet.5750</title>
									<path
   d="m 17.79,123.89 c 0,1.54 -3.99,2.78 -8.9,2.78 C 4,126.67 0,125.43 0,123.89 c 0,-1.54 4,-2.76 8.89,-2.76 4.91,0 8.9,1.24 8.9,2.76 z"
   class="st6"
   id="path116"
   inkscape:connector-curvature="0"
   style="fill:#50e6ff;stroke:none;stroke-width:34;stroke-linecap:butt" />
								</g>
							</g>
							<g
   id="group5751-37"
   transform="translate(4.55617,-25.1377)">
								<title
   id="title120">Sheet.5751</title>
								<g
   id="shape5752-38">
									<title
   id="title122">Sheet.5752</title>
									<path
   d="m 7.03,124.59 a 21.6834,20.8824 -90 0 0 -7.03,1.06 21.4394,20.6474 -90 0 0 7.03,1.02 20.9324,20.1592 -90 0 0 7.04,-1.09 22.2278,21.4067 -90 0 0 -7.04,-0.99 z"
   class="st7"
   id="path124"
   inkscape:connector-curvature="0"
   style="fill:#198ab3;stroke:none;stroke-width:34;stroke-linecap:butt" />
								</g>
							</g>
							<g
   id="group5753-40"
   transform="translate(2.89281,-8.11015)">
								<title
   id="title128">Sheet.5753</title>
								<g
   id="shape5754-41">
									<title
   id="title130">Sheet.5754</title>
									<path
   d="m 15.75,123.33 v -6.38 h -1.63 v 7.75 h 4.45 v -1.37 z M 2.83,120.19 A 3.43555,3.30864 90 0 1 1.91,119.61 0.826034,0.795522 90 0 1 1.69304,119.00925 0.638299,0.614722 90 0 1 1.964241,118.44604 1.2766,1.22944 90 0 1 2.73,118.22 a 3.04131,2.92896 90 0 1 1.8,0.54 v -1.61 a 4.84356,4.66465 -90 0 0 -1.8,-0.3 3.07886,2.96513 -90 0 0 -1.97,0.64 2.02754,1.95264 -90 0 0 -0.76,1.67 c 0,0.95 0.58,1.71 1.81,2.27 a 5.40677,5.20705 90 0 1 1.12,0.68 0.788488,0.759362 90 0 1 0.271201,0.60075 A 0.713393,0.687042 90 0 1 2.91192,123.29273 1.52065,1.46448 90 0 1 2.1,123.49 3.11641,3.00128 90 0 1 0.13,122.71 v 1.74 a 4.07385,3.92337 -90 0 0 1.93,0.45 3.52942,3.39904 -90 0 0 2.13,-0.61 2.02754,1.95264 -90 0 0 0.6,-1.71 1.97121,1.89841 -90 0 0 -0.45,-1.31 4.54319,4.37537 -90 0 0 -1.51,-1.08 z m 9.48,2.99 a 4.393,4.23073 -90 0 0 0.6,-2.36 4.35545,4.19457 -90 0 0 -0.6,-2 3.39801,3.27249 -90 0 0 -1.26,-1.4 3.7547,3.61601 -90 0 0 -1.81,-0.49 3.96121,3.81489 -90 0 0 -1.96,0.5 3.49187,3.36289 -90 0 0 -1.31,1.39 4.61829,4.44769 -90 0 0 -0.47,2.14 4.24281,4.08609 -90 0 0 0.43,1.88 3.30414,3.18209 -90 0 0 1.24,1.39 3.86734,3.72448 -90 0 0 1.82,0.56 l 1.55,1.88 h 2.19 l -2.23,-2.06 a 3.36046,3.23632 -90 0 0 1.81,-1.43 z m -1.81,-0.47 a 1.76471,1.69952 90 0 1 -1.37,0.66 1.72716,1.66337 90 0 1 -1.37,-0.68 2.85357,2.74816 90 0 1 -0.53,-1.87 2.87235,2.76624 90 0 1 0.53,-1.89 1.87735,1.80801 90 0 1 1.41,-0.69 1.63329,1.57297 90 0 1 1.35,0.69 3.04131,2.92896 90 0 1 0.49,1.89 2.74093,2.63969 90 0 1 -0.51,1.89 z"
   class="st8"
   id="path132"
   inkscape:connector-curvature="0"
   style="fill:url(#grad3-44);stroke:none;stroke-width:34;stroke-linecap:butt" />
								</g>
							</g>
						</g>
					</g>
				</g>
			</g>
		</g>
	</g>
</svg>

<?xml version="1.0" encoding="UTF-8" standalone="no"?>
<!DOCTYPE svg PUBLIC "-//W3C//DTD SVG 1.1//EN" "http://www.w3.org/Graphics/SVG/1.1/DTD/svg11.dtd">
<!-- Generated by Microsoft Visio, SVG Export Database Server SQL.svg Page-1 -->
<svg xmlns="http://www.w3.org/2000/svg" xmlns:xlink="http://www.w3.org/1999/xlink" xmlns:ev="http://www.w3.org/2001/xml-events"
		width="1.56222in" height="1.75929in" viewBox="0 0 112.48 126.669" xml:space="preserve" color-interpolation-filters="sRGB"
		class="st9">
	<style type="text/css">
	<![CDATA[
		.st1 {fill:url(#grad0-11);stroke:none;stroke-linecap:butt;stroke-width:35.9597}
		.st2 {fill:#003067;stroke:none;stroke-linecap:butt;stroke-width:35.9597}
		.st3 {fill:#50e6ff;stroke:none;stroke-linecap:butt;stroke-width:35.9597}
		.st4 {fill:url(#grad0-30);stroke:none;stroke-linecap:butt;stroke-width:34}
		.st5 {fill:#e8e8e8;stroke:none;stroke-linecap:butt;stroke-width:34}
		.st6 {fill:#50e6ff;stroke:none;stroke-linecap:butt;stroke-width:34}
		.st7 {fill:#198ab3;stroke:none;stroke-linecap:butt;stroke-width:34}
		.st8 {fill:url(#grad3-44);stroke:none;stroke-linecap:butt;stroke-width:34}
		.st9 {fill:none;fill-rule:evenodd;font-size:12px;overflow:visible;stroke-linecap:square;stroke-miterlimit:3}
	]]>
	</style>

	<defs id="Patterns_And_Gradients">
		<linearGradient id="grad0-11" x1="0" y1="0" x2="1" y2="0" gradientTransform="rotate(-90 0.5 0.5)">
			<stop offset="0" stop-color="#949494" stop-opacity="1"/>
			<stop offset="0.53" stop-color="#a2a2a2" stop-opacity="1"/>
			<stop offset="1" stop-color="#b3b3b3" stop-opacity="1"/>
		</linearGradient>
		<linearGradient id="grad0-30" x1="0" y1="0" x2="1" y2="0" gradientTransform="rotate(0 0.5 0.5)">
			<stop offset="0" stop-color="#005ba1" stop-opacity="1"/>
			<stop offset="0.07" stop-color="#0060a9" stop-opacity="1"/>
			<stop offset="0.36" stop-color="#0071c8" stop-opacity="1"/>
			<stop offset="0.52" stop-color="#0078d4" stop-opacity="1"/>
			<stop offset="0.64" stop-color="#0074cd" stop-opacity="1"/>
			<stop offset="0.82" stop-color="#006abb" stop-opacity="1"/>
			<stop offset="1" stop-color="#005ba1" stop-opacity="1"/>
		</linearGradient>
		<radialGradient id="grad3-44" cx="0.5" cy="0.5" r="0.73">
			<stop offset="0" stop-color="#f2f2f2" stop-opacity="1"/>
			<stop offset="0.58" stop-color="#eeeeee" stop-opacity="1"/>
			<stop offset="1" stop-color="#e6e6e6" stop-opacity="1"/>
		</radialGradient>
	</defs>
	<g>
		<title>Page-1</title>
		<g id="group5607-1" transform="translate(35.9599,-34.0157)">
			<title>Database Server SQL</title>
			<g id="group5608-2">
				<title>Page-1</title>
				<g id="group5609-3">
					<title>Sheet.5609</title>
					<g id="group5610-4" transform="translate(0,-2.2952)">
						<title>Sheet.5610</title>
						<g id="group5611-5">
							<title>Icon-databases-136.149</title>
							<g id="group5612-6">
								<title>path4-5</title>
								<g id="group5613-7">
									<title>Sheet.5613</title>
									<g id="shape5614-8">
										<title>Sheet.5614</title>
										<path d="M30.79 124.82 A1.88724 1.81867 90 0 1 29.01 126.67 L1.78 126.67 A1.85469 1.78732
													 90 0 1 0 124.82 L0 74.12 A1.82216 1.75596 90 0 1 1.78 72.27 L29.01 72.27 A1.85469
													 1.78732 90 0 1 30.79 74.12 L30.79 124.82 Z" class="st1"/>
									</g>
								</g>
							</g>
							<g id="group5615-12" transform="translate(4.51533,-31.8551)">
								<title>path6-7</title>
								<g id="group5616-13">
									<title>Sheet.5616</title>
									<g id="shape5617-14">
										<title>Sheet.5617</title>
										<path d="M-0 123.19 A3.48163 3.35514 90 0 1 3.33 119.74 L18.69 119.74 A3.48163 3.35514 90
													 0 1 22.13 123.19 A3.48163 3.35514 90 0 1 18.69 126.67 L3.33 126.67 A3.48163
													 3.35514 90 0 1 0 123.19 ZM0 112.91 A3.48163 3.35514 90 0 1 3.33 109.43 L18.69
													 109.43 A3.48163 3.35514 90 0 1 22.13 112.91 A3.48163 3.35514 90 0 1 18.69 116.36
													 L3.33 116.36 A3.48163 3.35514 90 0 1 -0 112.91 Z" class="st2"/>
									</g>
								</g>
							</g>
							<g id="group5618-16" transform="translate(5.76958,-43.2737)">
								<title>circle8-5</title>
								<g id="group5619-17">
									<title>Sheet.5619</title>
									<g id="shape5620-18">
										<title>Sheet.5620</title>
										<ellipse cx="2.25766" cy="124.326" rx="2.25766" ry="2.34278" class="st3"/>
									</g>
								</g>
							</g>
							<g id="group5621-20" transform="translate(5.76958,-32.9916)">
								<title>circle10-2</title>
								<g id="group5622-21">
									<title>Sheet.5622</title>
									<g id="shape5623-22">
										<title>Sheet.5623</title>
										<ellipse cx="2.25766" cy="124.326" rx="2.25766" ry="2.34278" class="st3"/>
									</g>
								</g>
							</g>
						</g>
					</g>
					<g id="group5624-24" transform="translate(19.3456,-2.84217E-13)">
						<title>SQL Database</title>
						<g id="group5625-25">
							<title>Sheet.5625</title>
							<g id="group5626-26">
								<title>Sheet.5626</title>
								<g id="shape5627-27">
									<title>Sheet.5627</title>
									<path d="M11.59 103.47 C5.18 103.47 0 101.59 0 99.11 L0 122.31 C0 124.7 5.1 126.63 11.43 126.67
												 L11.59 126.67 C17.99 126.67 23.17 124.79 23.17 122.31 L23.17 99.11 C23.17 101.53
												 17.99 103.47 11.59 103.47 Z" class="st4"/>
								</g>
							</g>
							<g id="group5628-31" transform="translate(0,-23.2041)">
								<title>Sheet.5628</title>
								<g id="shape5629-32">
									<title>Sheet.5629</title>
									<path d="M23.17 122.31 C23.17 124.74 17.99 126.67 11.59 126.67 C5.18 126.67 0 124.79 0 122.31
												 C0 119.84 5.18 117.96 11.59 117.96 C17.99 117.96 23.17 119.84 23.17 122.31 Z"
											class="st5"/>
								</g>
							</g>
							<g id="group5630-34" transform="translate(2.69393,-25.1377)">
								<title>Sheet.5630</title>
								<g id="shape5631-35">
									<title>Sheet.5631</title>
									<path d="M17.79 123.89 C17.79 125.43 13.8 126.67 8.89 126.67 C4 126.67 0 125.43 0 123.89 C0 122.35
												 4 121.13 8.89 121.13 C13.8 121.13 17.79 122.37 17.79 123.89 Z" class="st6"/>
								</g>
							</g>
							<g id="group5632-37" transform="translate(4.55617,-25.1377)">
								<title>Sheet.5632</title>
								<g id="shape5633-38">
									<title>Sheet.5633</title>
									<path d="M7.03 124.59 A21.6834 20.8824 -90 0 0 -0 125.65 A21.4394 20.6474 -90 0 0 7.03 126.67
												 A20.9324 20.1592 -90 0 0 14.07 125.58 A22.2278 21.4067 -90 0 0 7.03 124.59 Z"
											class="st7"/>
								</g>
							</g>
							<g id="group5634-40" transform="translate(2.89281,-8.11015)">
								<title>Sheet.5634</title>
								<g id="shape5635-41">
									<title>Sheet.5635</title>
									<path d="M15.75 123.33 L15.75 116.95 L14.12 116.95 L14.12 124.7 L18.57 124.7 L18.57 123.33 L15.75
												 123.33 ZM2.83 120.19 A3.43555 3.30864 90 0 1 1.91 119.61 a0.826034 0.795522 90 0
												 1 -0.21696 -0.600753 a0.638299 0.614722 90 0 1 0.271201 -0.563205 A1.2766 1.22944
												 90 0 1 2.73 118.22 A3.04131 2.92896 90 0 1 4.53 118.76 L4.53 117.15 A4.84356 4.66465
												 -90 0 0 2.73 116.85 A3.07886 2.96513 -90 0 0 0.76 117.49 A2.02754 1.95264 -90 0
												 0 -0 119.16 C0 120.11 0.58 120.87 1.81 121.43 A5.40677 5.20705 90 0 1 2.93 122.11
												 a0.788488 0.759362 90 0 1 0.271201 0.600753 a0.713393 0.687042 90 0 1 -0.289281
												 0.581979 A1.52065 1.46448 90 0 1 2.1 123.49 A3.11641 3.00128 90 0 1 0.13 122.71
												 L0.13 124.45 A4.07385 3.92337 -90 0 0 2.06 124.9 A3.52942 3.39904 -90 0 0 4.19 124.29
												 A2.02754 1.95264 -90 0 0 4.79 122.58 A1.97121 1.89841 -90 0 0 4.34 121.27 A4.54319
												 4.37537 -90 0 0 2.83 120.19 ZM12.31 123.18 A4.393 4.23073 -90 0 0 12.91 120.82 A4.35545
												 4.19457 -90 0 0 12.31 118.82 A3.39801 3.27249 -90 0 0 11.05 117.42 A3.7547 3.61601
												 -90 0 0 9.24 116.93 A3.96121 3.81489 -90 0 0 7.28 117.43 A3.49187 3.36289 -90 0
												 0 5.97 118.82 A4.61829 4.44769 -90 0 0 5.5 120.96 A4.24281 4.08609 -90 0 0 5.93
												 122.84 A3.30414 3.18209 -90 0 0 7.17 124.23 A3.86734 3.72448 -90 0 0 8.99 124.79
												 L10.54 126.67 L12.73 126.67 L10.5 124.61 A3.36046 3.23632 -90 0 0 12.31 123.18 ZM10.5
												 122.71 A1.76471 1.69952 90 0 1 9.13 123.37 A1.72716 1.66337 90 0 1 7.76 122.69 A2.85357
												 2.74816 90 0 1 7.23 120.82 A2.87235 2.76624 90 0 1 7.76 118.93 A1.87735 1.80801
												 90 0 1 9.17 118.24 A1.63329 1.57297 90 0 1 10.52 118.93 A3.04131 2.92896 90 0 1
												 11.01 120.82 A2.74093 2.63969 90 0 1 10.5 122.71 Z" class="st8"/>
								</g>
							</g>
						</g>
					</g>
				</g>
			</g>
		</g>
	</g>
</svg>
